src/lib/packages/icons/src/assets/filled/tags.svg

<svg width="24" height="24" viewBox="0 0 24 24" fill="none" xmlns="http://www.w3.org/2000/svg">
<path d="M15 20.75C14.586 20.75 14.25 20.414 14.25 20C14.25 19.586 14.586 19.25 15 19.25C15.419 19.25 15.8571 19.019 16.3051 18.564L20.5389 14.32C21.0109 13.852 21.249 13.414 21.25 13.016C21.251 12.615 21.012 12.172 20.54 11.7L14.14 5.28999C13.83 4.97499 13.414 4.78798 12.962 4.75898C12.548 4.73198 12.234 4.37498 12.262 3.96199C12.288 3.54799 12.682 3.24003 13.058 3.26203C13.881 3.31503 14.6441 3.66103 15.2061 4.23603L21.601 10.641C22.366 11.405 22.752 12.206 22.75 13.02C22.749 13.832 22.361 14.627 21.599 15.384L17.371 19.621C16.635 20.368 15.836 20.75 15 20.75ZM17.075 14.853L12.842 19.09C11.63 20.304 10.375 20.304 9.16199 19.09L2.76099 12.683C2.27299 12.195 1.99902 11.532 1.99902 10.841V5.73603C1.99902 4.77703 2.77601 4.00001 3.73401 4.00001H8.83398C9.52398 4.00001 10.186 4.27401 10.674 4.76301L17.075 11.17C18.329 12.426 18.287 13.639 17.075 14.853ZM6.55005 7.55C6.55005 6.998 6.104 6.55 5.552 6.55H5.54199C4.99199 6.55 4.54895 6.998 4.54895 7.55C4.54895 8.102 5.00103 8.55 5.55103 8.55C6.10403 8.55 6.55005 8.102 6.55005 7.55Z" fill="currentColor"/>
</svg>

<svg xmlns="http://www.w3.org/2000/svg" width="24" height="24" fill="none"><path fill="currentColor" d="M15 20.75a.75.75 0 0 1 0-1.5c.419 0 .857-.231 1.305-.686l4.234-4.244c.472-.468.71-.906.711-1.304.001-.401-.238-.844-.71-1.316l-6.4-6.41a1.804 1.804 0 0 0-1.178-.531.75.75 0 0 1-.7-.797c.026-.414.42-.722.796-.7a3.289 3.289 0 0 1 2.148.974l6.395 6.405c.765.764 1.151 1.565 1.149 2.379-.001.812-.389 1.607-1.151 2.364l-4.228 4.237c-.736.747-1.535 1.129-2.371 1.129Zm2.075-5.897-4.233 4.237c-1.212 1.214-2.467 1.214-3.68 0l-6.401-6.407a2.605 2.605 0 0 1-.762-1.842V5.736C1.999 4.777 2.776 4 3.734 4h5.1c.69 0 1.352.274 1.84.763l6.401 6.407c1.254 1.256 1.212 2.469 0 3.683ZM6.55 7.55c0-.552-.446-1-.998-1h-.01a.996.996 0 0 0-.993 1c0 .552.452 1 1.002 1a.999.999 0 0 0 .999-1Z"/></svg>
